src/assets/icons/youtube.svg

<svg width="24" height="25" viewBox="0 0 24 25" fill="none" xmlns="http://www.w3.org/2000/svg">
<path fill-rule="evenodd" clip-rule="evenodd" d="M19.792 6.28104C20.6521 6.5121 21.3325 7.19247 21.5635 8.05254C21.9872 9.61865 22 12.8664 22 12.8664C22 12.8664 22 16.127 21.5764 17.6803C21.3453 18.5403 20.665 19.2207 19.8049 19.4518C18.2516 19.8754 12 19.8754 12 19.8754C12 19.8754 5.74839 19.8754 4.19512 19.4518C3.33504 19.2207 2.65469 18.5403 2.42362 17.6803C2 16.1142 2 12.8664 2 12.8664C2 12.8664 2 9.61865 2.41078 8.06538C2.64185 7.2053 3.32221 6.52495 4.18229 6.29388C5.73556 5.87026 11.9872 5.85742 11.9872 5.85742C11.9872 5.85742 18.2388 5.85742 19.792 6.28104ZM15.1836 12.8664L9.99743 15.8703V9.86256L15.1836 12.8664Z" fill="black"/>
</svg>

<svg xmlns="http://www.w3.org/2000/svg" width="24" height="25" fill="none"><path fill="#000" fill-rule="evenodd" d="M19.792 6.281c.86.231 1.54.911 1.771 1.772.424 1.566.437 4.813.437 4.813s0 3.261-.424 4.814a2.52 2.52 0 0 1-1.771 1.772c-1.553.423-7.805.423-7.805.423s-6.252 0-7.805-.423a2.52 2.52 0 0 1-1.771-1.772C2 16.114 2 12.866 2 12.866s0-3.247.41-4.8c.232-.86.912-1.541 1.772-1.772 1.554-.424 7.805-.437 7.805-.437s6.252 0 7.805.424m-4.608 6.585L9.997 15.87V9.863z" clip-rule="evenodd"/></svg>
